packages/foundations/assets/icons/functional/images/technology/augmented_reality.svg

<svg xmlns="http://www.w3.org/2000/svg" width="32" height="32" fill="none"><path fill="#1A1C1F" fill-rule="evenodd" d="M14.188 4.454c-1.364.683-1.563.798-1.676.974-.172.265-.211.488-.137.768.083.313.288.569.552.689.359.163.53.132 1.323-.238l.729-.34.017.726c.02.845.09 1.05.435 1.278.178.118.274.142.569.142.446 0 .688-.145.881-.53.12-.24.132-.326.132-.943v-.679l.722.343c.773.367 1.025.417 1.374.271.228-.096.498-.41.568-.66.069-.248.069-.262.001-.507-.109-.39-.254-.491-1.877-1.3-1.354-.675-1.572-.768-1.803-.768s-.447.093-1.81.774M8.4 7.327c-.117.039-1.009.468-1.981.955-1.281.642-1.797.927-1.874 1.035-.216.304-.233.492-.215 2.443.016 1.769.022 1.876.126 2.053.38.647 1.266.678 1.704.058l.16-.227.017-1.008c.01-.555.029-1.009.043-1.009s.289.179.611.398c.625.425.898.534 1.198.478.57-.107.964-.811.746-1.334-.121-.288-.286-.447-.864-.828-.274-.181-.498-.344-.498-.363s.386-.225.856-.459c.471-.234.914-.486.984-.559a.97.97 0 0 0 .211-1.054c-.208-.498-.723-.741-1.224-.579m14.507.003c-.47.172-.742.803-.557 1.293.106.281.364.47 1.221.896.471.234.856.44.856.459s-.224.182-.498.363c-.573.377-.744.54-.86.817-.117.283-.103.463.064.79.197.386.491.55.931.52.274-.019.363-.06.919-.431.339-.226.628-.41.643-.41s.027.402.028.893c0 .491.026.989.059 1.107.076.275.405.59.7.671.458.125.999-.151 1.171-.597.078-.203.091-.476.093-2.053.002-1.24-.017-1.876-.058-2-.14-.411-.192-.445-2.147-1.414-1.995-.989-2.166-1.05-2.565-.904m-10.791 4.603c-.153.13-.319.527-1.429 3.427-.69 1.804-1.268 3.344-1.284 3.423-.065.324.399.538.916.422.413-.092.491-.2.853-1.166l.145-.387 1.391.014 1.391.014.202.507c.357.894.43.975.93 1.042.486.064.822-.098.822-.397 0-.129-2.43-6.595-2.535-6.744-.16-.228-.352-.301-.8-.301-.39 0-.444.013-.602.146m5.284-.076a.8.8 0 0 0-.214.198c-.085.121-.094.388-.109 3.252-.012 2.234.001 3.18.045 3.333.08.279.289.495.547.564a.7.7 0 0 0 .686-.153c.291-.244.312-.362.312-1.743v-1.255l.413.001c.666 0 .651-.016 1.425 1.57.619 1.269.675 1.364.865 1.46.282.143.605.187.861.118.264-.071.455-.29.41-.47-.017-.069-.304-.686-.636-1.37-.488-1.003-.653-1.293-.852-1.492-.206-.206-.231-.252-.153-.278.488-.164.867-.479 1.047-.868.096-.207.113-.344.113-.911 0-.608-.012-.693-.14-.964-.243-.519-.626-.819-1.256-.983-.407-.105-3.177-.113-3.364-.009m2.867 1.196c.272.136.373.379.373.894 0 .507-.098.745-.372.903-.155.089-.307.111-.894.128l-.707.021V12.96h.706c.566 0 .744.019.894.093m-7.005 2.138c.244.684.445 1.266.445 1.293 0 .028-.407.049-.96.049-.528 0-.96-.018-.96-.04 0-.049.83-2.387.914-2.573.044-.099.067-.113.088-.053zM5.2 17.678a2 2 0 0 1-.196.051c-.207.045-.471.288-.584.535-.088.196-.098.384-.099 2.003 0 1.105.021 1.864.057 1.991.108.391.293.515 2.182 1.47.983.497 1.879.92 1.992.941.727.135 1.36-.662 1.072-1.35-.135-.323-.277-.43-1.157-.872-.462-.231-.84-.439-.839-.461 0-.021.216-.181.481-.354.264-.173.55-.394.637-.492.562-.641.101-1.62-.762-1.62-.279 0-.329.023-.941.427-.355.234-.655.426-.668.426-.012 0-.029-.438-.038-.973-.019-1.116-.069-1.289-.444-1.542-.194-.131-.562-.226-.693-.18m21.214.026c-.228.056-.525.287-.641.499-.077.141-.096.342-.11 1.17-.01.55-.028 1-.041 1-.012 0-.3-.184-.639-.41-.561-.374-.643-.412-.93-.433q-.662-.046-.937.542c-.153.328-.16.522-.03.808.115.254.318.44.874.8.227.147.412.285.413.306 0 .022-.379.23-.844.463-.584.292-.895.481-1.011.613-.459.522-.276 1.277.374 1.549.426.177.497.153 2.502-.861 1.982-1.002 2.121-1.096 2.232-1.509.038-.139.053-.844.043-2.014-.015-1.706-.022-1.812-.127-2.014a1.04 1.04 0 0 0-1.128-.509M15.867 23.01c-.03.012-.118.035-.196.052-.207.045-.471.288-.584.536-.083.183-.098.359-.099 1.161l-.001.945-.7-.345c-.589-.291-.745-.346-.977-.346-.879 0-1.323 1.091-.686 1.687.082.077.817.473 1.633.88 1.297.647 1.516.74 1.743.74s.446-.093 1.743-.741c.868-.433 1.543-.804 1.628-.893.293-.312.378-.711.227-1.072-.161-.387-.49-.601-.922-.601-.215 0-.388.062-.958.344l-.696.343-.018-.997c-.02-1.129-.053-1.241-.447-1.514-.192-.134-.559-.228-.69-.179"/></svg>

<svg width="32" height="32" viewBox="0 0 32 32" fill="none" xmlns="http://www.w3.org/2000/svg"><path d="M14.188 4.454 C 12.824 5.137,12.625 5.252,12.512 5.428 C 12.340 5.693,12.301 5.916,12.375 6.196 C 12.458 6.509,12.663 6.765,12.927 6.885 C 13.286 7.048,13.457 7.017,14.250 6.647 L 14.979 6.307 14.996 7.033 C 15.016 7.878,15.086 8.083,15.431 8.311 C 15.609 8.429,15.705 8.453,16.000 8.453 C 16.446 8.453,16.688 8.308,16.881 7.923 C 17.001 7.683,17.013 7.597,17.013 6.980 L 17.013 6.301 17.735 6.644 C 18.508 7.011,18.760 7.061,19.109 6.915 C 19.337 6.819,19.607 6.505,19.677 6.255 C 19.746 6.007,19.746 5.993,19.678 5.748 C 19.569 5.358,19.424 5.257,17.801 4.448 C 16.447 3.773,16.229 3.680,15.998 3.680 C 15.768 3.680,15.551 3.773,14.188 4.454 M8.400 7.327 C 8.283 7.366,7.391 7.795,6.419 8.282 C 5.138 8.924,4.622 9.209,4.545 9.317 C 4.329 9.621,4.312 9.809,4.330 11.760 C 4.346 13.529,4.352 13.636,4.456 13.813 C 4.836 14.460,5.722 14.491,6.160 13.871 L 6.320 13.644 6.337 12.636 C 6.347 12.081,6.366 11.627,6.380 11.627 C 6.394 11.627,6.669 11.806,6.991 12.025 C 7.616 12.450,7.889 12.559,8.189 12.503 C 8.759 12.396,9.153 11.692,8.935 11.169 C 8.814 10.881,8.649 10.722,8.071 10.341 C 7.797 10.160,7.573 9.997,7.573 9.978 C 7.573 9.959,7.959 9.753,8.429 9.519 C 8.900 9.285,9.343 9.033,9.413 8.960 C 9.691 8.670,9.773 8.261,9.624 7.906 C 9.416 7.408,8.901 7.165,8.400 7.327 M22.907 7.330 C 22.437 7.502,22.165 8.133,22.350 8.623 C 22.456 8.904,22.714 9.093,23.571 9.519 C 24.042 9.753,24.427 9.959,24.427 9.978 C 24.427 9.997,24.203 10.160,23.929 10.341 C 23.356 10.718,23.185 10.881,23.069 11.158 C 22.952 11.441,22.966 11.621,23.133 11.948 C 23.330 12.334,23.624 12.498,24.064 12.468 C 24.338 12.449,24.427 12.408,24.983 12.037 C 25.322 11.811,25.611 11.627,25.626 11.627 C 25.641 11.627,25.653 12.029,25.654 12.520 C 25.654 13.011,25.680 13.509,25.713 13.627 C 25.789 13.902,26.118 14.217,26.413 14.298 C 26.871 14.423,27.412 14.147,27.584 13.701 C 27.662 13.498,27.675 13.225,27.677 11.648 C 27.679 10.408,27.660 9.772,27.619 9.648 C 27.479 9.237,27.427 9.203,25.472 8.234 C 23.477 7.245,23.306 7.184,22.907 7.330 M12.116 11.933 C 11.963 12.063,11.797 12.460,10.687 15.360 C 9.997 17.164,9.419 18.704,9.403 18.783 C 9.338 19.107,9.802 19.321,10.319 19.205 C 10.732 19.113,10.810 19.005,11.172 18.039 L 11.317 17.652 12.708 17.666 L 14.099 17.680 14.301 18.187 C 14.658 19.081,14.731 19.162,15.231 19.229 C 15.717 19.293,16.053 19.131,16.053 18.832 C 16.053 18.703,13.623 12.237,13.518 12.088 C 13.358 11.860,13.166 11.787,12.718 11.787 C 12.328 11.787,12.274 11.800,12.116 11.933 M17.400 11.857 C 17.333 11.894,17.237 11.983,17.186 12.055 C 17.101 12.176,17.092 12.443,17.077 15.307 C 17.065 17.541,17.078 18.487,17.122 18.640 C 17.202 18.919,17.411 19.135,17.669 19.204 C 17.932 19.275,18.146 19.228,18.355 19.051 C 18.646 18.807,18.667 18.689,18.667 17.308 L 18.667 16.053 19.080 16.054 C 19.746 16.054,19.731 16.038,20.505 17.624 C 21.124 18.893,21.180 18.988,21.370 19.084 C 21.652 19.227,21.975 19.271,22.231 19.202 C 22.495 19.131,22.686 18.912,22.641 18.732 C 22.624 18.663,22.337 18.046,22.005 17.362 C 21.517 16.359,21.352 16.069,21.153 15.870 C 20.947 15.664,20.922 15.618,21.000 15.592 C 21.488 15.428,21.867 15.113,22.047 14.724 C 22.143 14.517,22.160 14.380,22.160 13.813 C 22.160 13.205,22.148 13.120,22.020 12.849 C 21.777 12.330,21.394 12.030,20.764 11.866 C 20.357 11.761,17.587 11.753,17.400 11.857 M20.267 13.053 C 20.539 13.189,20.640 13.432,20.640 13.947 C 20.640 14.454,20.542 14.692,20.268 14.850 C 20.113 14.939,19.961 14.961,19.374 14.978 L 18.667 14.999 18.667 13.980 L 18.667 12.960 19.373 12.960 C 19.939 12.960,20.117 12.979,20.267 13.053 M13.262 15.191 C 13.506 15.875,13.707 16.457,13.707 16.484 C 13.707 16.512,13.300 16.533,12.747 16.533 C 12.219 16.533,11.787 16.515,11.787 16.493 C 11.787 16.444,12.617 14.106,12.701 13.920 C 12.745 13.821,12.768 13.807,12.789 13.867 C 12.804 13.911,13.017 14.506,13.262 15.191 M5.200 17.678 C 5.171 17.689,5.083 17.711,5.004 17.729 C 4.797 17.774,4.533 18.017,4.420 18.264 C 4.332 18.460,4.322 18.648,4.321 20.267 C 4.321 21.372,4.342 22.131,4.378 22.258 C 4.486 22.649,4.671 22.773,6.560 23.728 C 7.543 24.225,8.439 24.648,8.552 24.669 C 9.279 24.804,9.912 24.007,9.624 23.319 C 9.489 22.996,9.347 22.889,8.467 22.447 C 8.005 22.216,7.627 22.008,7.628 21.986 C 7.628 21.965,7.844 21.805,8.109 21.632 C 8.373 21.459,8.659 21.238,8.746 21.140 C 9.308 20.499,8.847 19.520,7.984 19.520 C 7.705 19.520,7.655 19.543,7.043 19.947 C 6.688 20.181,6.388 20.373,6.375 20.373 C 6.363 20.373,6.346 19.935,6.337 19.400 C 6.318 18.284,6.268 18.111,5.893 17.858 C 5.699 17.727,5.331 17.632,5.200 17.678 M26.414 17.704 C 26.186 17.760,25.889 17.991,25.773 18.203 C 25.696 18.344,25.677 18.545,25.663 19.373 C 25.653 19.923,25.635 20.373,25.622 20.373 C 25.610 20.373,25.322 20.189,24.983 19.963 C 24.422 19.589,24.340 19.551,24.053 19.530 C 23.613 19.498,23.298 19.681,23.116 20.072 C 22.963 20.400,22.956 20.594,23.086 20.880 C 23.201 21.134,23.404 21.320,23.960 21.680 C 24.187 21.827,24.372 21.965,24.373 21.986 C 24.373 22.008,23.994 22.216,23.529 22.449 C 22.945 22.741,22.634 22.930,22.518 23.062 C 22.059 23.584,22.242 24.339,22.892 24.611 C 23.318 24.788,23.389 24.764,25.394 23.750 C 27.376 22.748,27.515 22.654,27.626 22.241 C 27.664 22.102,27.679 21.397,27.669 20.227 C 27.654 18.521,27.647 18.415,27.542 18.213 C 27.337 17.821,26.846 17.599,26.414 17.704 M15.867 23.010 C 15.837 23.022,15.749 23.045,15.671 23.062 C 15.464 23.107,15.200 23.350,15.087 23.598 C 15.004 23.781,14.989 23.957,14.988 24.759 L 14.987 25.704 14.287 25.359 C 13.698 25.068,13.542 25.013,13.310 25.013 C 12.431 25.013,11.987 26.104,12.624 26.700 C 12.706 26.777,13.441 27.173,14.257 27.580 C 15.554 28.227,15.773 28.320,16.000 28.320 C 16.228 28.320,16.446 28.227,17.743 27.579 C 18.611 27.146,19.286 26.775,19.371 26.686 C 19.664 26.374,19.749 25.975,19.598 25.614 C 19.437 25.227,19.108 25.013,18.676 25.013 C 18.461 25.013,18.288 25.075,17.718 25.357 L 17.022 25.700 17.004 24.703 C 16.984 23.574,16.951 23.462,16.557 23.189 C 16.365 23.055,15.998 22.961,15.867 23.010 " fill="#1A1C1F" stroke="none" fill-rule="evenodd"></path></svg>
